packages/sources/icons/src/vitamix/history-line.svg

<svg width="16" height="16" viewBox="0 0 16 16" xmlns="http://www.w3.org/2000/svg"><path d="M7.99998 1.33331C11.682 1.33331 14.6666 4.31798 14.6666 7.99998C14.6666 11.682 11.682 14.6666 7.99998 14.6666C4.31798 14.6666 1.33331 11.682 1.33331 7.99998H2.66665C2.66665 10.9453 5.05465 13.3333 7.99998 13.3333C10.9453 13.3333 13.3333 10.9453 13.3333 7.99998C13.3333 5.05465 10.9453 2.66665 7.99998 2.66665C6.16665 2.66665 4.54931 3.59131 3.58998 4.99998H5.33331V6.33331H1.33331V2.33331H2.66665V3.99998C3.88265 2.37998 5.81931 1.33331 7.99998 1.33331ZM8.66665 4.66665V7.72331L10.8286 9.88531L9.88531 10.8286L7.33331 8.27531V4.66665H8.66665Z"/></svg>

<svg width="16" height="16" xmlns="http://www.w3.org/2000/svg"><path d="M8 1.333A6.666 6.666 0 1 1 1.333 8h1.334a5.334 5.334 0 1 0 .923-3h1.743v1.333h-4v-4h1.334V4A6.654 6.654 0 0 1 8 1.333Zm.667 3.334v3.056l2.162 2.162-.944.944-2.552-2.554V4.667h1.334Z"/></svg>
